!!!PDT:	1923
!!!LANG: Non-Tone
!!!LING_GROUP: Siouan
!!!REG: Dakotas
!!!COM: Anon.
!!!OTL: Victory Song
!!!ODT: <1918//
!!!MPN: Wopite [Scattered Corn, Mrs. Holding Eagle]
!!!MLC: Fort Berthold Reservation, North Dakota, United States of America
!! Song was recorded during either the summer of 1912, 1915, or 1918.
!!!AGN: monody
!!!SOCIAL_FUNCTION: Mandan and Hidatsa War Songs
!!!AMT: irregular
!!!RWG: Transcribed pitches, durations, and meters are only approximate.
!! Drum Tempo: MM100
!! Drum-rhythm (approximate): (12^ 12r 12) (12^ 12r 12) (12^ 12r 12) (12^ 12 12)
**kern
*ICvox
*Ifemale
*clefG2
*k[b-e-a-d-g-c-]
*M2/4
*MM100
16g-
=1
8b-
8b-
16b-
8.a-
*M3/4
=2
16b-
8.g-
[4g-
8.g-]
16g-
*M2/4
=3
8b-
8b-
16b-
8.a-
=4
16b-
8.g-
8.g-
16f
*M3/4
=5
8g-
8d-
4d-
8.B-
16B-
*M2/4
=6
8.e-
16e-
4d-
=7
16d-
8.B-
8.B-
16B-
=8
4B-
8B-
8B-
*M3/4
=9
[2B-
8B-]
8g-
*M2/4
=10
8b-
16b-
16b-
(16b-
8.a-)
=11
32b-
16.g-
8g-
(8g-
8f)
*M3/4
=12
32g-
16.d-
8d-
(8d-
8B-)
8.B-
16B-
*M2/4
=13
8.e-
16e-
4d-
=14
8.d-
16d-
4B-
=15
16d-
8.B-
8.B-
16B-
=16
4B-
8B-
8B-
=17
2B-
==
*-
!!!CNT: Mandan
!!!TXO: Mandan
!!!OCY: United States
!!!OCL: Frances Densmore
!!!YOR: Frances Densmore, "Mandan and Hidatsa Music",
!!!YOR: Bulletin 80, page 158, No. 90
!!!PPR: Smithsonian Institution, Bureau of American Ethnology
!!!PPR: Government Printing Office
!!!PDT: 1923
!!!PPP: Washington, DC, United States of America
!!!YEC: Electronic Copyright 2000 David Huron
!!!YER: August 2000
!!!YEN: United States of America
!!!ENC: David Huron
!!!RDT: August 18, 2000
!!!EEV: Release 1.0
!!!AIN: tom, vox
